images/ProcessIcons/Track, Analyze, Optimize.svg

<svg width="24" height="24" viewBox="0 0 24 24" fill="none" xmlns="http://www.w3.org/2000/svg">
<path d="M6.37501 14.25C5.7075 14.25 5.05497 14.4479 4.49996 14.8188C3.94494 15.1896 3.51236 15.7167 3.25691 16.3334C3.00147 16.9501 2.93463 17.6287 3.06486 18.2834C3.19508 18.9381 3.51652 19.5395 3.98852 20.0115C4.46052 20.4835 5.06189 20.8049 5.71658 20.9352C6.37126 21.0654 7.04986 20.9985 7.66656 20.7431C8.28327 20.4876 8.81037 20.0551 9.18122 19.5001C9.55207 18.945 9.75001 18.2925 9.75001 17.625C9.75001 16.7299 9.39443 15.8715 8.76149 15.2385C8.12856 14.6056 7.27011 14.25 6.37501 14.25ZM6.37501 19.5C6.00417 19.5 5.64166 19.39 5.33331 19.184C5.02497 18.978 4.78465 18.6851 4.64273 18.3425C4.50082 17.9999 4.46369 17.6229 4.53604 17.2592C4.60838 16.8955 4.78696 16.5614 5.04918 16.2992C5.31141 16.037 5.6455 15.8584 6.00921 15.786C6.37293 15.7137 6.74993 15.7508 7.09254 15.8927C7.43515 16.0346 7.72799 16.275 7.93401 16.5833C8.14004 16.8916 8.25001 17.2542 8.25001 17.625C8.24754 18.1215 8.04921 18.597 7.69811 18.9481C7.34701 19.2992 6.87153 19.4975 6.37501 19.5V19.5ZM3.21563 9.96563L4.56563 8.625L3.21563 7.28437C3.09604 7.13865 3.03492 6.95366 3.04416 6.76537C3.05341 6.57708 3.13236 6.39896 3.26567 6.26566C3.39897 6.13236 3.57708 6.0534 3.76537 6.04416C3.95366 6.03491 4.13866 6.09603 4.28438 6.21563L5.62501 7.56562L6.96563 6.21563C7.11135 6.09603 7.29635 6.03491 7.48464 6.04416C7.67293 6.0534 7.85105 6.13236 7.98435 6.26566C8.11765 6.39896 8.1966 6.57708 8.20585 6.76537C8.2151 6.95366 8.15398 7.13865 8.03438 7.28437L6.68438 8.625L8.03438 9.96563C8.17522 10.1078 8.25423 10.2999 8.25423 10.5C8.25423 10.7001 8.17522 10.8922 8.03438 11.0344C7.89103 11.173 7.69942 11.2505 7.50001 11.2505C7.3006 11.2505 7.10899 11.173 6.96563 11.0344L5.62501 9.68438L4.28438 11.0344C4.14103 11.173 3.94942 11.2505 3.75001 11.2505C3.5506 11.2505 3.35899 11.173 3.21563 11.0344C3.0748 10.8922 2.99579 10.7001 2.99579 10.5C2.99579 10.2999 3.0748 10.1078 3.21563 9.96563V9.96563ZM20.7844 18.9656C20.9252 19.1078 21.0042 19.2999 21.0042 19.5C21.0042 19.7001 20.9252 19.8922 20.7844 20.0344C20.641 20.173 20.4494 20.2505 20.25 20.2505C20.0506 20.2505 19.859 20.173 19.7156 20.0344L18.375 18.6844L17.0344 20.0344C16.891 20.173 16.6994 20.2505 16.5 20.2505C16.3006 20.2505 16.109 20.173 15.9656 20.0344C15.8248 19.8922 15.7458 19.7001 15.7458 19.5C15.7458 19.2999 15.8248 19.1078 15.9656 18.9656L17.3156 17.625L15.9656 16.2844C15.846 16.1387 15.7849 15.9537 15.7942 15.7654C15.8034 15.5771 15.8824 15.399 16.0157 15.2657C16.149 15.1324 16.3271 15.0534 16.5154 15.0442C16.7037 15.0349 16.8887 15.096 17.0344 15.2156L18.375 16.5656L19.7156 15.2156C19.8614 15.096 20.0464 15.0349 20.2346 15.0442C20.4229 15.0534 20.6011 15.1324 20.7344 15.2657C20.8677 15.399 20.9466 15.5771 20.9559 15.7654C20.9651 15.9537 20.904 16.1387 20.7844 16.2844L19.4344 17.625L20.7844 18.9656ZM16.5469 10.575C15.9656 12.675 14.175 14.4844 12.1781 14.9813L12 15C11.8316 15.0006 11.6679 14.9445 11.5353 14.8408C11.4026 14.7371 11.3087 14.5917 11.2688 14.4281C11.2234 14.2343 11.2559 14.0304 11.3593 13.8603C11.4628 13.6902 11.6289 13.5676 11.8219 13.5187C13.2844 13.1531 14.6625 11.7469 15.1031 10.1812C15.3938 9.10312 15.4031 7.4625 13.7156 5.78438L13.5 5.55937V7.5C13.5 7.69891 13.421 7.88968 13.2803 8.03033C13.1397 8.17098 12.9489 8.25 12.75 8.25C12.5511 8.25 12.3603 8.17098 12.2197 8.03033C12.079 7.88968 12 7.69891 12 7.5V3.75C12 3.55109 12.079 3.36032 12.2197 3.21967C12.3603 3.07902 12.5511 3 12.75 3H16.5C16.6989 3 16.8897 3.07902 17.0303 3.21967C17.171 3.36032 17.25 3.55109 17.25 3.75C17.25 3.94891 17.171 4.13968 17.0303 4.28033C16.8897 4.42098 16.6989 4.5 16.5 4.5H14.5594L14.7844 4.71562C16.4906 6.43125 17.1188 8.5125 16.5469 10.575V10.575Z" fill="black"/>
</svg>

<svg xmlns="http://www.w3.org/2000/svg" width="24" height="24" fill="none" xmlns:v="https://vecta.io/nano"><path d="M6.375 14.25c-.668 0-1.32.198-1.875.569s-.988.898-1.243 1.515-.322 1.295-.192 1.95.452 1.256.924 1.728 1.073.793 1.728.924 1.333.063 1.95-.192 1.144-.688 1.515-1.243.569-1.208.569-1.875c0-.895-.356-1.754-.989-2.386s-1.491-.989-2.386-.989zm0 5.25c-.371 0-.733-.11-1.042-.316s-.549-.499-.691-.841-.179-.72-.107-1.083.251-.698.513-.96.596-.441.96-.513.741-.035 1.083.107.635.382.841.691.316.671.316 1.042c-.002.497-.201.972-.552 1.323s-.827.549-1.323.552h0zM3.216 9.966l1.35-1.341-1.35-1.341a.76.76 0 0 1 .05-1.019.76.76 0 0 1 1.019-.05l1.341 1.35 1.341-1.35a.76.76 0 0 1 1.019.05.76.76 0 0 1 .05 1.019l-1.35 1.341 1.35 1.341a.76.76 0 0 1 0 1.069.77.77 0 0 1-1.069 0l-1.341-1.35-1.341 1.35a.77.77 0 0 1-1.069 0 .76.76 0 0 1 0-1.069h0zm17.569 9a.76.76 0 0 1 0 1.069.77.77 0 0 1-1.069 0l-1.341-1.35-1.341 1.35a.77.77 0 0 1-1.069 0 .76.76 0 0 1 0-1.069l1.35-1.341-1.35-1.341a.76.76 0 0 1 .05-1.019.76.76 0 0 1 1.019-.05l1.341 1.35 1.341-1.35a.76.76 0 0 1 1.019.05.76.76 0 0 1 .05 1.019l-1.35 1.341 1.35 1.341zm-4.238-8.391c-.581 2.1-2.372 3.909-4.369 4.406L12 15a.75.75 0 0 1-.731-.572.76.76 0 0 1 .553-.909c1.463-.366 2.841-1.772 3.281-3.338.291-1.078.3-2.719-1.387-4.397l-.216-.225V7.5a.75.75 0 0 1-.75.75.75.75 0 0 1-.75-.75V3.75a.75.75 0 0 1 .75-.75h3.75a.75.75 0 0 1 .75.75.75.75 0 0 1-.75.75h-1.941l.225.216c1.706 1.716 2.334 3.797 1.763 5.859h0z" fill="#000"/></svg>
